priv/static/images/frameworks/rails.svg

<svg
  width="129"
  height="128"
  viewBox="0 0 129 128"
  fill="none"
  xmlns="http://www.w3.org/2000/svg"
>
  <path
    d="M123 72.2999H117.7V69.5999H128.2V63.6999H118.2C115.6 63.6999 112.1 65.7999 112.1 69.7999V71.7999C112.1 75.7999 115.5 77.7999 118.2 77.7999H123.2V80.5999L112.4 80.6999V86.5999H123C125.2 86.5999 128.9 84.9999 129 80.5999V78.2999C129 74.4999 125.9 72.2999 123 72.2999ZM61.4002 71.3999C61.4002 64.0999 54.5002 63.3999 54.5002 63.3999H42.2002V86.4999H48.4002V80.9999L53.8002 86.5999H63.0002L55.7002 79.1999C55.7002 79.1999 61.4002 78.6999 61.4002 71.3999ZM53.3002 74.4999H48.3002V69.1999H53.3002C53.3002 69.1999 54.7002 69.6999 54.7002 71.7999C54.7002 73.9999 53.3002 74.4999 53.3002 74.4999ZM76.7002 63.5999H70.4002C65.9002 63.5999 64.4002 67.6999 64.4002 69.5999V86.4999H70.7002V82.4999H76.6002V86.4999H82.7002V69.5999C82.7002 64.6999 78.3002 63.5999 76.7002 63.5999ZM76.6002 75.8999H70.6002V70.2999C70.6002 70.2999 70.6002 68.9999 72.6002 68.9999H74.8002C76.5002 68.9999 76.6002 70.2999 76.6002 70.2999V75.8999ZM85.6002 63.5999H92.2002V86.4999H85.6002V63.5999ZM101.4 63.5999H94.9002V86.4999H110.2V80.5999H101.4V63.5999Z"
    fill="#CC0000"
  />
  <path
    d="M73.2002 60.6999C73.8002 60.1999 74.3002 59.7999 74.3002 59.7999C74.3002 59.7999 57.5002 42.9999 38.7002 44.8999C29.3002 45.6999 17.7002 54.2999 10.9002 65.5999C4.10019 76.8999 3.2002 86.4999 3.2002 86.4999H28.8002C28.8002 86.4999 23.9002 64.1999 40.1002 55.1999C43.6002 53.4999 54.9002 47.0999 73.2002 60.6999ZM56.5002 44.4999C56.2002 44.2999 55.4002 43.8999 53.4002 43.3999L53.3002 45.4999C54.4002 45.8999 55.4002 46.2999 56.4002 46.6999L56.5002 44.4999Z"
    fill="#CC0000"
  />
  <path
    d="M56.4999 55.9L56.5999 53.9C55.4999 53.7 54.3999 53.6 53.3999 53.5L53.2999 55.5C54.3999 55.5 55.3999 55.7 56.4999 55.9ZM41.3999 43.5H41.6999L41.0999 41.5C40.0999 41.5 39.0999 41.6 37.9999 41.7L38.5999 43.6C39.4999 43.5 40.3999 43.5 41.3999 43.5ZM43.5999 57.6C44.4999 57.1 45.4999 56.8 46.3999 56.5L45.6999 54.4C44.6999 54.6 43.6999 55 42.8999 55.4L43.5999 57.6ZM28.1999 46.9L26.6999 44.7C25.9999 45 25.0999 45.5 24.2999 46L25.7999 48.3C26.5999 47.8 27.3999 47.3 28.1999 46.9ZM34.8999 61.4L36.4999 63.7C37.0999 62.9 37.6999 62.1 38.3999 61.4L36.8999 59.2C36.0999 59.9 35.4999 60.7 34.8999 61.4ZM31.1999 68.3C30.6999 69.5 30.3999 70.7 30.1999 71.8L32.7999 73.9C32.8999 72.6 33.1999 71.4 33.4999 70.1L31.1999 68.3ZM15.9999 56.5L13.6999 54.5C12.8999 55.3 11.9999 56.1 11.2999 56.9L13.7999 59C14.4999 58.1 15.1999 57.3 15.9999 56.5ZM6.1999 70.9L2.4999 69.5C1.8999 70.9 1.1999 72.5 0.899902 73.4L4.5999 74.8C4.9999 73.7 5.6999 72.1 6.1999 70.9ZM29.6999 80C29.7999 81.7 29.8999 83.1 30.0999 84.1L33.9999 85.5C33.6999 84.2 33.3999 82.8 33.1999 81.3L29.6999 80Z"
    fill="#CC0000"
  />
</svg>

<svg xmlns="http://www.w3.org/2000/svg" width="129" height="128" fill="none"><path fill="#C00" d="M123 72.3h-5.3v-2.7h10.5v-5.9h-10c-2.6 0-6.1 2.1-6.1 6.1v2c0 4 3.4 6 6.1 6h5v2.8l-10.8.1v5.9H123c2.2 0 5.9-1.6 6-6v-2.3c0-3.8-3.1-6-6-6m-61.6-.9c0-7.3-6.9-8-6.9-8H42.2v23.1h6.2V81l5.4 5.6H63l-7.3-7.4s5.7-.5 5.7-7.8m-8.1 3.1h-5v-5.3h5s1.4.5 1.4 2.6c0 2.2-1.4 2.7-1.4 2.7m23.4-10.9h-6.3c-4.5 0-6 4.1-6 6v16.9h6.3v-4h5.9v4h6.1V69.6c0-4.9-4.4-6-6-6m-.1 12.3h-6v-5.6s0-1.3 2-1.3h2.2c1.7 0 1.8 1.3 1.8 1.3zm9-12.3h6.6v22.9h-6.6zm15.8 0h-6.5v22.9h15.3v-5.9h-8.8z"/><path fill="#C00" d="M73.2 60.7c.6-.5 1.1-.9 1.1-.9S57.5 43 38.7 44.9c-9.4.8-21 9.4-27.8 20.7S3.2 86.5 3.2 86.5h25.6s-4.9-22.3 11.3-31.3c3.5-1.7 14.8-8.1 33.1 5.5M56.5 44.5c-.3-.2-1.1-.6-3.1-1.1l-.1 2.1c1.1.4 2.1.8 3.1 1.2z"/><path fill="#C00" d="m56.5 55.9.1-2c-1.1-.2-2.2-.3-3.2-.4l-.1 2c1.1 0 2.1.2 3.2.4M41.4 43.5h.3l-.6-2c-1 0-2 .1-3.1.2l.6 1.9c.9-.1 1.8-.1 2.8-.1m2.2 14.1c.9-.5 1.9-.8 2.8-1.1l-.7-2.1c-1 .2-2 .6-2.8 1zM28.2 46.9l-1.5-2.2c-.7.3-1.6.8-2.4 1.3l1.5 2.3c.8-.5 1.6-1 2.4-1.4m6.7 14.5 1.6 2.3c.6-.8 1.2-1.6 1.9-2.3l-1.5-2.2c-.8.7-1.4 1.5-2 2.2m-3.7 6.9c-.5 1.2-.8 2.4-1 3.5l2.6 2.1c.1-1.3.4-2.5.7-3.8zM16 56.5l-2.3-2c-.8.8-1.7 1.6-2.4 2.4l2.5 2.1c.7-.9 1.4-1.7 2.2-2.5M6.2 70.9l-3.7-1.4c-.6 1.4-1.3 3-1.6 3.9l3.7 1.4c.4-1.1 1.1-2.7 1.6-3.9M29.7 80c.1 1.7.2 3.1.4 4.1l3.9 1.4c-.3-1.3-.6-2.7-.8-4.2z"/></svg>
